X: 100406
T: PIRATE'S HORNPIPE
R: hornpipe
B: K\"ohler's Violin Repository, v.3, 1885 p.263 #2
F: http://www.archive.org/details/klersviolinrepos03rugg
Z: 2012 John Chambers <jc:trillian.mit.edu>
M: C|
L: 1/8
K: Eb
uB,2 |\
(ED)EF (EB,)G,B, | EeBG EFGE | (AF)cB (AG)FE | DBFD B,DFD |
(ED)EF (EB,)G,B, | EeBG EFGE | (AF)cA (GF)ED | E2E2 E2 :|
|: uB2 |\
e2e2 dB=AB | f2fe (dB)=AB | (af)dB (AF)GE | DBFD B,2((3B,CD) |
E2E2 CA,G,A, | F2(FE) DB,=A,B, | (eB)AG (FA)DF | [E2G,2][G2B,2] [E2G,2] :|

%%sep 2 1 500

